X:21
T:George White's Favorite
R:reel
Z:Transcribed by Dave Marshall
M:C|
K:G
|: e~B3 eBdB | AGAB GEDE | G~B3 d~B3 | eBdB A2Bd |
e~B3 eBdB | AGAB GEDE | GABd gedB |1 AGAB G2Bd :|2 AGAB G4
|:gede gaba | gfga gedB | dega bgag | eaag a2 ga |
bgeg d3g | gede gaba | ~g3d egdB | AGAB G4 :|
